!!!ONB: MCCC : ILB0187_03 : Extracted Monophonic Melody
!!!COM: Beethoven, Ludwig van
!!!OPR: Piano Sonata No.26
!!!OMV: 3
!!!SCT: Op.81a
!!!ODT: 1809///
**kern
*thru
*staff1
*Ipiano
*>A
*clefG2
*k[b-e-a-]
*E-:
*M6/8
*MM144
=1
8aaa-
16B-
16A
16B-
16d
16f
16d
16f
16a-
16f
16d
=2
16a-
16f
16a-
16b-
16a-
16f
16b-
16a-
16b-
16dd
16b-
16a-
=3
16ff
16dd
16ff
16aa-
16ff
16dd
16aa-
16ff
16aa-
16bb-
16aa-
16ff
=4
*8va
16bb-
16aa-
16bb-
16ddd
16bb-
16aa-
16ddd
16bb-
16ddd
16fff
16ddd
16bb-
=5
16fff
16ddd
16fff
16aaa-
16fff
16ddd
16bb-
16aa
16bb-
16ddd
16fff
16ddd
=6
16fff
16ddd
16fff
16aaa-
16fff
16ddd
16bb-
16aa
16bb-
16ddd
16fff
16ddd
*X8va
=7
16ff
16dd
16ff
16aa-
16ff
16dd
16b-
16a
16b-
16dd
16ff
16dd
=8
16ff
16dd
16ff
16aa-
16ff
16dd
16b-
16a
16b-
16dd
16ff
16dd
=9
8aa-
16B-
16A
16B-
16A
16c
16B-
16e-
16d
16g
16f
=10
16b-
16a
16cc
16b-
16ee-
16dd
16gg
16ff
16bb-
16aa
16ccc
16bb-
=11
*>B
8bb-
8gg
8ee-
8dd
8ff
8bb-
=12
8bb-
8gg
8ee-
8ee-
8gg
8ccc
=13
8ccc
8aa-
8ff
8ee
8gg
8ccc
=14
8ccc
8aa-
8ff
8dd
8ff
8bb-
=15
8bb-
8gg
8ee-
8cc
8ff
8aa-
=16
8b-
8ee-
8gg
8a-
8dd
8ff
=17
8ee-
8r
8gg
16aa-
16gg
16aa-
16ff
16bb-
16aa-
=18
8gg
8bbb-
8r
4r
8g
=19
4r
8a-
16b-
16a-
16b-
16g
16cc
16b-
=20
8a-
8ccc
8r
4r
8ff
=21
4r
8gg
16aa-
16gg
16aa-
16ff
8aaa-
=22
4r
8ee-
16ff
16ee-
16ff
16dd
8fff
=23
16g
16gg
16g
16gg
16b-
16bb-
16b-
16bb-
16b-
16bb-
16a-
16aa-
=24
16g
16gg
16g
16gg
16b-
16bb-
16b-
16bb-
16b-
16bb-
16g
16gg
=25
16a-
16aa-
16a-
16aa-
16cc
16ccc
16cc
16ccc
16cc
16ccc
16b-
16bb-
=26
16a-
16aa-
16a-
16aa-
16cc
16ccc
16cc
16ccc
16b-
16bb-
16a-
16aa-
=27
16g
16gg
16b-
16bb-
16ee-
16eee-
16ee-
16eee-
16cc
16ccc
16a-
16aa-
=28
16ee-
16eee-
16b-
16bb-
16g
16gg
16b-
16bb-
16a-
16aa-
16f
16ff
=29
16G
16e-
16B-
16g
16e-
16b-
16g
16ee-
16b-
16gg
16ee-
16bb-
=30
*8va
16gg
16eee-
16bb-
16ggg
16eee-
16bbb-
16aaa
16bbb-
16aaa
16bbb-
16aaa
16bbb-
=31
16cccc
16bbb-
16aaa-
16ggg
16fff
16eee-
*X8va
16ddd
16ccc
16bb-
16aa-
16gg
16ff
=32
16ee-
16dd
16cc
16b-
16a-
16g
16f
16e-
16d
16f
16a-
16d
=33
16G
16e-
16B-
16g
16e-
16b-
16g
16ee-
16b-
16gg
16ee-
16bb-
=34
*8va
16gg
16eee-
16bb-
16ggg
16eee-
16bbb-
16aaa
16bbb-
16aaa
16bbb-
16aaa
16bbb-
=35
16cccc
16bbb-
16aaa-
16ggg
16fff
16eee-
*X8va
16ddd
16ccc
16bb-
16aa-
16gg
16ff
=36
24ee-
24dd
24cc
24b-
24a-
24g
24f
24e-
24d
16c
16B-
16A
16c
16e-
16A
=37
4B-
8r
4b-
8r
=38
4dd-
8r
4gg-
8r
=39
4dd-
8r
4b-
8r
=40
4g-
8r
4d-
8r
=41
4A
8r
4a
8r
=42
4cc
8r
4ff
8r
=43
4cc
8r
4a
8r
=44
4f
8r
4c
8r
=45
8dd-
8r
16bb-
16aa
8bb-
8r
16ddd-
16ccc
=46
8ddd-
8r
*8va
16ggg-
16fff
8ggg-
8r
16ddd-
16ccc
=47
8ddd-
8r
16bb-
16aa
8bb-
*X8va
8r
16gg-
16ff
=48
8gg-
8r
16dd-
16cc
4dd-
8r
=49
8cc
8r
16aa
16gg
8aa
8r
16ccc
16bb
=50
8ccc
8r
*8va
16fff
16eee
8fff
8r
16ccc
16bb
*X8va
=51
8ccc
8r
16aa
16gg
8aa
8r
16ff
16ee
=52
8ff
8r
16cc
16b
8cc
8r
8cc#
=53
4.dd
4.b-
=54
4.a
4.ee-
=55
4.dd
4.b-
=56
4.a
4.ee-
=57
16dd
16ff
24gg
24aa
24bb-
*8va
24ccc
24ddd
24eee-
16fff
16eee-
16ddd
16ccc
16bb-
16aa
=58
16gg
16aa
16bb-
16ccc
24ddd
24eee-
24fff
16ggg
16fff
24eee-
24ddd
24ccc
24bb-
24aa
24gg
=59
16ff
16ddd
16bb-
16fff
16ddd
16bbb-
24fff
24dddd
24bbb-
24ffff
24dddd
24bbb-
24fff
24ddd
24bb-
*X8va
=60
4ff
8r
4.ccc
=61
4.ddd
4.bb-
=62
4.aa
4.eee-
=63
4.ddd
4.bb-
=64
4.aa
4.eee-
=65
8r
*8va
8ddd
8ddd
8ddd
8ddd
8ddd
=66
8r
8ccc
8ccc
8ccc
8ccc
8ccc
=67
8r
8ddd
8ddd
8ddd
8ddd
8fff
=68
8fff
8fff
8fff
8fff
8fff
8fff
=69
4r
[8aaa-
4aaa-]
8ggg
=70
4r
[8ggg-
4ggg-]
8fff
*X8va
=71
4r
[8aa-
4aa-]
8gg
=72
4r
[8gg-
4gg-]
8ff
=73
8r
8ff
8ff
8r
8ee-
8dd
=74
8r
8dd
8cc
8r
8b-
8a
=75
8r
8b-
8f
8r
8e-
8d
=76
8r
8d
8c
8r
8B-
8A
=77
16BB-
16C
16D
16E-
24F
24G
24A
24B-
24c
24d
24e-
24f
24g
16a
16A
=78
16B-
16c
16d
16e-
24f
24g
24a
24b-
24cc
24dd
24ee-
24ff
24gg
16aa
16a
=79
16b-
16cc
16dd
16ee-
24ff
24gg
24aa
*8va
24bb-
24ccc
24ddd
24eee-
24fff
24ggg
16aaa
16aa
=80
4bbb-
*X8va
8r
4bb-
8r
=81
*>B1
4b-
8r
4r
8bb-
=82
*>B
8bb-
8gg
8ee-
8dd
8ff
8bb-
=83
8bb-
8gg
8ee-
8ee-
8gg
8ccc
=84
8ccc
8aa-
8ff
8ee
8gg
8ccc
=85
8ccc
8aa-
8ff
8dd
8ff
8bb-
=86
8bb-
8gg
8ee-
8cc
8ff
8aa-
=87
8b-
8ee-
8gg
8a-
8dd
8ff
=88
8ee-
8r
8gg
16aa-
16gg
16aa-
16ff
16bb-
16aa-
=89
8gg
8bbb-
8r
4r
8g
=90
4r
8a-
16b-
16a-
16b-
16g
16cc
16b-
=91
8a-
8ccc
8r
4r
8ff
=92
4r
8gg
16aa-
16gg
16aa-
16ff
8aaa-
=93
4r
8ee-
16ff
16ee-
16ff
16dd
8fff
=94
16g
16gg
16g
16gg
16b-
16bb-
16b-
16bb-
16b-
16bb-
16a-
16aa-
=95
16g
16gg
16g
16gg
16b-
16bb-
16b-
16bb-
16b-
16bb-
16g
16gg
=96
16a-
16aa-
16a-
16aa-
16cc
16ccc
16cc
16ccc
16cc
16ccc
16b-
16bb-
=97
16a-
16aa-
16a-
16aa-
16cc
16ccc
16cc
16ccc
16b-
16bb-
16a-
16aa-
=98
16g
16gg
16b-
16bb-
16ee-
16eee-
16ee-
16eee-
16cc
16ccc
16a-
16aa-
=99
16ee-
16eee-
16b-
16bb-
16g
16gg
16b-
16bb-
16a-
16aa-
16f
16ff
=100
16G
16e-
16B-
16g
16e-
16b-
16g
16ee-
16b-
16gg
16ee-
16bb-
=101
*8va
16gg
16eee-
16bb-
16ggg
16eee-
16bbb-
16aaa
16bbb-
16aaa
16bbb-
16aaa
16bbb-
=102
16cccc
16bbb-
16aaa-
16ggg
16fff
16eee-
*X8va
16ddd
16ccc
16bb-
16aa-
16gg
16ff
=103
16ee-
16dd
16cc
16b-
16a-
16g
16f
16e-
16d
16f
16a-
16d
=104
16G
16e-
16B-
16g
16e-
16b-
16g
16ee-
16b-
16gg
16ee-
16bb-
=105
*8va
16gg
16eee-
16bb-
16ggg
16eee-
16bbb-
16aaa
16bbb-
16aaa
16bbb-
16aaa
16bbb-
=106
16cccc
16bbb-
16aaa-
16ggg
16fff
16eee-
*X8va
16ddd
16ccc
16bb-
16aa-
16gg
16ff
=107
24ee-
24dd
24cc
24b-
24a-
24g
24f
24e-
24d
16c
16B-
16A
16c
16e-
16A
=108
4B-
8r
4b-
8r
=109
4dd-
8r
4gg-
8r
=110
4dd-
8r
4b-
8r
=111
4g-
8r
4d-
8r
=112
4A
8r
4a
8r
=113
4cc
8r
4ff
8r
=114
4cc
8r
4a
8r
=115
4f
8r
4c
8r
=116
8dd-
8r
16bb-
16aa
8bb-
8r
16ddd-
16ccc
=117
8ddd-
8r
*8va
16ggg-
16fff
8ggg-
8r
16ddd-
16ccc
=118
8ddd-
8r
16bb-
16aa
8bb-
*X8va
8r
16gg-
16ff
=119
8gg-
8r
16dd-
16cc
4dd-
8r
=120
8cc
8r
16aa
16gg
8aa
8r
16ccc
16bb
=121
8ccc
8r
*8va
16fff
16eee
8fff
8r
16ccc
16bb
*X8va
=122
8ccc
8r
16aa
16gg
8aa
8r
16ff
16ee
=123
8ff
8r
16cc
16b
8cc
8r
8cc#
=124
4.dd
4.b-
=125
4.a
4.ee-
=126
4.dd
4.b-
=127
4.a
4.ee-
=128
16dd
16ff
24gg
24aa
24bb-
*8va
24ccc
24ddd
24eee-
16fff
16eee-
16ddd
16ccc
16bb-
16aa
=129
16gg
16aa
16bb-
16ccc
24ddd
24eee-
24fff
16ggg
16fff
24eee-
24ddd
24ccc
24bb-
24aa
24gg
=130
16ff
16ddd
16bb-
16fff
16ddd
16bbb-
24fff
24dddd
24bbb-
24ffff
24dddd
24bbb-
24fff
24ddd
24bb-
*X8va
=131
4ff
8r
4.ccc
=132
4.ddd
4.bb-
=133
4.aa
4.eee-
=134
4.ddd
4.bb-
=135
4.aa
4.eee-
=136
8r
*8va
8ddd
8ddd
8ddd
8ddd
8ddd
=137
8r
8ccc
8ccc
8ccc
8ccc
8ccc
=138
8r
8ddd
8ddd
8ddd
8ddd
8fff
=139
8fff
8fff
8fff
8fff
8fff
8fff
=140
4r
[8aaa-
4aaa-]
8ggg
=141
4r
[8ggg-
4ggg-]
8fff
*X8va
=142
4r
[8aa-
4aa-]
8gg
=143
4r
[8gg-
4gg-]
8ff
=144
8r
8ff
8ff
8r
8ee-
8dd
=145
8r
8dd
8cc
8r
8b-
8a
=146
8r
8b-
8f
8r
8e-
8d
=147
8r
8d
8c
8r
8B-
8A
=148
16BB-
16C
16D
16E-
24F
24G
24A
24B-
24c
24d
24e-
24f
24g
16a
16A
=149
16B-
16c
16d
16e-
24f
24g
24a
24b-
24cc
24dd
24ee-
24ff
24gg
16aa
16a
=150
16b-
16cc
16dd
16ee-
24ff
24gg
24aa
*8va
24bb-
24ccc
24ddd
24eee-
24fff
24ggg
16aaa
16aa
=151
4bbb-
*X8va
8r
4bb-
8r
=152
*>B2
4b-
8r
4r
8b-
=153
*>C
4b-
8r
4B-
8r
=154
4BB-
8r
4r
8bb-
=155
4.bb-
4.ccc-
=156
4.ccc
4ddd-
8dd-
=157
4dd-
8r
4d-
8r
=158
4D-
8r
4r
8ccc#
=159
4.ccc#
[4.ddd#
=160
4.ddd#]
[4.eee
=161
4.eee]
4.fff#
=162
4.ggg
[4.ggg#
=163
4.ggg#]
4.fff#
=164
4.eee
4.ccc#
=165
2.ddd#
=166
2.ccc#
=167
4.ddd#
4.bb
=168
4.aa#
4.fff#
=169
4.fff#
4.ff#
=170
4.ff#
4gg
8aa
=171
4bb
8eee
4ddd
8bb
=172
4aa
8eee
4ddd
8aa
=173
4.bb
4.gg
=174
4.ff#
4.ccc
=175
8bb
8b
8ddd
8ddd
8bb
8gg
=176
8r
8b
8dd
8gg
8bb
8ddd
=177
4eee
8cc
8b
8cc
8ee
=178
8r
8gg
8ccc
4eee
8eee-
=179
8eee-
8ccc
8aa-
8gg
8bb-
8eee-
=180
8ee-
8cc
8a-
8ee-
8b-
8bb-
=181
8bb-
8gg
8ee-
8dd
8ff
8bb-
=182
8bb-
8gg
8ee-
8ee-
8gg
8ccc
=183
8ccc
8aa-
8ff
8ee
8gg
8ccc
=184
8ccc
8aa-
8ff
8dd
8ff
8bb-
=185
8bb-
8gg
8ee-
8cc
8ff
8aa-
=186
8b-
8ee-
8gg
8b-
8dd
16a-
16ff
=187
16r
16g
16b-
16ee-
16gg
16g
16r
16a-
16b-
16ff
16aa-
16a-
=188
16r
*8va
16gg
16bb-
16eee-
16ggg
16gg
16r
16gg
16bb-
16eee-
16ggg
16eee
=189
16r
16aa-
16ccc
16fff
16aaa-
16aa-
16r
16bb-
16ccc
16ggg
16bbb-
16bb-
=190
16r
16aa-
16ccc
16fff
16aaa-
16aa-
16r
16aa-
16bb-
16fff
16aaa-
16aa-
=191
16r
16gg
16bb-
16eee-
16ggg
16gg
16r
16aaa-
16fff
16ccc
16aa-
16aaa-
=192
16r
16bbb-
16ggg
16eee-
16bb-
16bbb-
16r
16bbb-
16fff
16ddd
16bb-
16bbb-
*X8va
=193
16G
16e-
16B-
16g
16e-
16b-
16g
16ee-
16b-
16gg
16ee-
16bb-
=194
*8va
16gg
16eee-
16bb-
16ggg
16eee-
16bbb-
16aaa
16bbb-
16aaa
16bbb-
16aaa
16bbb-
=195
16cccc
16bbb-
16aaa-
16ggg
16fff
16eee-
*X8va
16ddd
16ccc
16bb-
16aa-
16gg
16ff
=196
16ee-
16dd
16cc
16b-
16a-
16g
16f
16e-
16d
16f
16a-
16d
=197
16G
16e-
16B-
16g
16e-
16b-
16g
16ee-
16b-
16gg
16ee-
16bb-
=198
*8va
16gg
16eee-
16bb-
16ggg
16eee-
16bbb-
16aaa
16bbb-
16aaa
16bbb-
16aaa
16bbb-
=199
16cccc
16bbb-
16aaa-
16ggg
16fff
16eee-
*X8va
16ddd-
16ccc
16bb-
16aa-
16gg
16ff
=200
16ee-
16dd-
16cc
16b-
16a-
16g
16f
16e-
16d
16f
16a-
16d
=201
4e-
8r
4ee-
8r
=202
4gg-
8r
4ccc-
8r
=203
4gg-
8r
4ee-
8r
=204
4cc-
8r
4g-
8r
=205
4d
8r
4dd
8r
=206
4ff
8r
4bb-
8r
=207
4ff
8r
4dd
8r
=208
4b-
8r
4f
8r
=209
8gg-
8r
*8va
16eee-
16ddd
8eee-
8r
16ggg-
16fff
=210
8ggg-
8r
16cccc-
16bbb-
8cccc-
8r
16ggg-
16fff
=211
8ggg-
8r
16eee-
16ddd
8eee-
8r
16ccc-
16bb-
=212
8ccc-
8r
16gg-
16ff
4gg-
8r
=213
8ff
8r
16ddd
16ccc
8ddd
8r
16fff
16eee
=214
8fff
8r
16bbb-
16aaa
8bbb-
8r
16fff
16eee
=215
8fff
8r
16ddd
16ccc
8ddd
8r
16bb-
16aa
*X8va
=216
8bb-
8r
16ff
16ee
8ff
8r
8ff#
=217
4.gg
4.ee-
=218
4.dd
4.aa-
=219
4.gg
4.ee-
=220
4.dd
4.aa-
=221
16gg
16cc
16dd
16ee-
24ff
24gg
24aa-
16bb-
16aa-
24gg
24ff
24ee-
24dd
24cc
24b
=222
16cc
16ee-
16ff
16gg
16aa-
16bb-
16ccc
16bb-
24aa-
24gg
24ff
24ee-
24dd
24cc
=223
16b-
16gg
16ee-
16bb-
16gg
16eee-
*8va
16bb-
16ggg
16eee-
16bbb-
16ggg
16eee-
*X8va
=224
4bb-
8r
4.fff
=225
*8va
4.ggg
4.eee-
=226
4.ddd
4.aaa-
=227
4.ggg
4.eee-
=228
4.ddd
4.aaa-
=229
8r
8ggg
8ggg
8ggg
8ggg
8ggg
=230
8r
8fff
8fff
8fff
8fff
8fff
=231
8r
8ggg
8ggg
8ggg
8ggg
8ggg
=232
8fff
8fff
8fff
8fff
8fff
8fff
=233
4r
[8dddd-
4dddd-]
8cccc
*X8va
=234
4r
[8ccc-
4ccc-]
8bb-
=235
4r
[8dd-
4dd-]
8cc
=236
4r
[8c-
4c-]
8B-
=237
8r
8b-
8b-
8r
8a-
8g
=238
8r
8g
8f
8r
8e-
8d
=239
8r
8bb-
8bb-
8r
8aa-
8gg
=240
8r
8gg
8ff
8r
4dd
=241
8r
8ee-
8b-
8r
8a-
8g
=242
8r
8g
8f
8r
8e-
8d
=243
16E-
16F
16G
16A-
24B-
24c
24d
24e-
24f
24g
24a-
24b-
24cc
16dd
16d
=244
16e-
16f
16g
16a-
24b-
24cc
24dd
24ee-
24ff
24gg
24aa-
24bb-
24ccc
16ddd
16dd
=245
16ee-
16ff
16gg
16aa-
24bb-
24ccc
24ddd
16eee-
*8va
16fff
16ggg
16aaa-
24bbb-
24cccc
24dddd
=246
4eeee-
*X8va
8r
4ee-
8r
=247
4e-
8r
4b-
8b-
=248
8b-
8g
8e-
8d
8f
8b-
=249
8b-
8g
8e-
8e
8g
8cc
=250
8cc
8a-
8f
8f#
8a
8dd
=251
8dd
8b-
8g
8a-
8b-
8dd
=252
8ee-
8b-
8g
8g
8b-
8ee-
=253
8gg
8ee-
8b-
8b-
8ee-
8gg
=254
8bb-
8gg
8ee-
8gg
8ee-
8b-
=255
8ee-
8b-
8g
8b-
8a-
8f
=256
16ee-
16dd
16ee-
16b-
8g
16g
16f#
16g
16b-
8ee-
=257
16gg
16ff#
16gg
16ee-
8b-
16b-
16a
16b-
16ee-
8gg
=258
16bb-
16ccc
16ccc
16gg
8ee-
16gg
16aa-
16gg
16ee-
8b-
=259
16ee-
16ff
16ee-
16b-
8g
8b-
8a-
8f
=260
16r
16bb-
8gg
[8ee-
16ee-]
8gg
8ee-
[16b-
=261
16b-]
8ee-
8b-
16g[
16g]
8b-
8a-
16f
=262
16bb-
16bbb-
16gg
16ggg
16ee-
16eee-
16gg
16ggg
16ee-
16eee-
16b-
16bb-
=263
16ee-
16eee-
16b-
16bb-
16g
16gg
16b-
16bb-
16a-
16aa-
16f
16ff
=264
16e-
16ee-
16g
16gg
16g
16gg
16g
16gg
16b-
16bb-
16b-
16bb-
=265
16b-
16bb-
16ee-
16eee-
16ee-
16eee-
16ee-
16eee-
16gg
16ggg
16bb-
16bbb-
=266
*8va
4eeee-
*X8va
8r
4dd
8r
=267
4ee-
8r
4r
8r
==
*-
